X:1
T:Title
%%score { ( 1 3 ) | ( 2 4 ) }
L:1/8
M:6/4
K:A
V:1 treble nm="Grand Piano"
V:3 treble 
V:2 bass 
V:4 bass 
V:1
 z6 z4[Q:1/4=132] E2 | [Ec]3 [^D=c] [E^c]2 [CA]4 [EG]2 | F4 A2 E4 [CE]2 | %3
 [CA]4 [CA][CA] A2 G2 [^DA]2 |[M:5/4] B2- B2- B6 |[M:1/4] E2 | %6
[M:6/4] [Ec]3 [^D=c] [E^c]2 [CA]4 [A,EG]2 |[M:7/4] A,4- [A,FA]2 [Fd]6 [Fd]F | %8
[M:6/4] c3 [Fd] c2 B4 c2 |[M:5/4] [A,CA]2- [A,CA]2- [A,CA]4- [A,CA] z |[M:1/4] E2 | %11
[M:6/4] B3 B B2 B2 c2 [Fd]2 | c4- [Ec-]2 [Ec]4 [Ec]2 | [^Dc]3 [DB] [DB]2 D2- [DG]2 [DA]2 | %14
[M:5/4] B2- B2- B6 |[M:1/4] E2 |[M:6/4] [Ec]4 [DB]2 [CA]4 [DB][Ec] | [=Ge]4 [Fd]2 [Fd]4 [Fd]2 | %18
 c3 B A2 B4 c2 |[M:5/4] [CA]2- [CA]2- [CA]6 |] %20
V:2
 z6 z4 [A,C]2 | [A,,A,]3 [A,,A,] [A,,A,]2 [A,,A,]4 [C,A,]2 | [D,A,D]4 [F,A,D]2 [A,C]4 [A,,A,]2 | %3
 [A,,E,]4 [A,,E,][A,,A,] [B,,F,]4 [B,,F,]2 |[M:5/4] [E,G,E]2- [E,G,E]2- [E,G,E]6 |[M:1/4] [E,G,]2 | %6
[M:6/4] [A,,A,]4 [A,,A,]2 [A,,E,]4 C,2 |[M:7/4] z2 G,2 D,2 [D,A,]6 [D,A,]2 | %8
[M:6/4] [E,A,E]4 E2 [E,G,D]4 [E,G,E]2 |[M:5/4] A,,2- A,,2- A,,4- A,, z |[M:1/4] E,2 | %11
[M:6/4] [E,G,D]3 [E,G,D] [E,G,D]2 D2 E2 [E,G,]2 | [A,,A,]4 [A,,A,]2 [A,,A,]4 [A,,A,]2 | %13
 [B,,A,]3 [B,,A,] [B,,F,]2 z2 B,2 [B,,F,]2 |[M:5/4] [E,G,E]4 [E,G,]2 [E,G,]4 |[M:1/4] [E,G,]2 | %16
[M:6/4] [A,,A,]4 [A,,A,]2 [A,,E,]4 [A,,A,][A,,A,] | [C,A,]4 [D,A,]2 [D,A,]4 [D,A,]2 | %18
 [E,A,E]3 [E,G,D] [E,A,C]2 [E,G,D]4 [E,G,E]2 |[M:5/4] [A,,E,]2- [A,,E,]2- [A,,E,]6 |] %20
V:3
 x12 | x12 | x12 | z6 .^D6 |[M:5/4] x10 |[M:1/4] x2 |[M:6/4] x12 |[M:7/4] [DF]4 z2 z2 z2 z4 | %8
[M:6/4] x12 |[M:5/4] x10 |[M:1/4] x2 |[M:6/4] x12 | .E6 z6 | z6 .[A,F]6 |[M:5/4] z4 E2 D4 | %15
[M:1/4] x2 |[M:6/4] x12 | x12 | x12 |[M:5/4] x10 |] %20
V:4
 x12 | x12 | x12 | x12 |[M:5/4] x10 |[M:1/4] x2 |[M:6/4] x12 |[M:7/4] D,4 z2 z2 z2 z4 | %8
[M:6/4] z2 z [E,A,]3 z6 |[M:5/4] x10 |[M:1/4] x2 |[M:6/4] z6 .[E,G,]6 | x12 | z6 .B,,6 | %14
[M:5/4] x10 |[M:1/4] x2 |[M:6/4] x12 | x12 | x12 |[M:5/4] x10 |] %20

